X: 23355
T: Leitrim Fancy, The
R: jig
M: 6/8
K: Dmajor
GBG FBF|EBE BAB|GBG FBF|DFA AFD|
G2B F2B|E2B BAB|GAB dBG|ABG FED:|
GAB d2d|edB dBA|GAB dBG|A2G FED|
GAB dBd|edB def|gfe dBG|ABG FED:|

